svg/u1f6f5.svg

<svg viewBox="0 0 128 128" xmlns="http://www.w3.org/2000/svg">
  <path d="M105.86,123.68c11.59-1.34,18.02-12.08,15.83-22.61c-1.71-8.2-8.76-16.4-21.2-14.98 c-13.19,1.5-17.31,14.13-15.62,22.61C86.85,118.61,95.06,124.93,105.86,123.68z" fill="#4D453C"/>
  <path d="M101.33,95.28c-5.3,1.04-9.21,5.57-8.2,11.59c1.06,6.33,6.62,8.96,12.14,7.95 c5.87-1.08,8.77-5.87,7.83-11.7C112.26,97.86,106.85,94.2,101.33,95.28z" fill="#FFFFFF"/>
  <path d="M104.31,113.18c5.03-0.57,7.83-5.14,6.88-9.63c-0.74-3.49-3.81-6.98-9.21-6.38 c-5.73,0.64-7.52,6.02-6.78,9.63C96.05,111.03,99.62,113.72,104.31,113.18z" fill="#B0B0B0"/>
  <path d="M24.74,124.19c11.33-1.3,17.61-11.7,15.47-21.89c-1.67-7.94-8.57-15.87-20.72-14.5 C6.6,89.25,2.56,101.48,4.22,109.69C6.16,119.29,14.19,125.4,24.74,124.19z" fill="#4D453C"/>
  <path d="M20.45,95.75c-5.53,1.08-9.6,5.8-8.55,12.07c1.11,6.6,6.69,9.46,12.45,8.4 c6.11-1.12,9.16-6.15,8.18-12.22C31.65,98.52,26.19,94.63,20.45,95.75z" fill="#FFFFFF"/>
  <path d="M23.35,113.76c4.8-0.54,7.46-4.87,6.55-9.12c-0.71-3.31-3.63-6.61-8.78-6.04 c-5.46,0.6-7.17,5.7-6.47,9.12C15.48,111.71,18.88,114.26,23.35,113.76z" fill="#B0B0B0"/>
  <path d="M29.08,87.8c0,0-8.81,14.22-9.88,16.49c-1.07,2.27-1.13,4.48,1.07,5.76 c2.33,1.36,4.49-0.36,5.77-2.61c0.98-1.72,12.29-18.86,12.29-18.86L29.08,87.8z" fill="#2F2F2F"/>
  <path d="M26.68,76.73c0,0-1.06,0-2.27,0.18c-1.21,0.19-1.55,0.29-1.55,0.29l1.68,10.42l8.57,4.94 c0,0,4.11,2.5,7.51,5.74c0.86,0.82,2.18,0.22,2.09-0.15s-8.94-20.12-8.94-20.12L26.68,76.73z" fill="#FC8F02"/>
  <path d="M8.71,90.41c0.65,0.98,5.63-0.95,13.66-0.63c5.88,0.24,10.87,2.89,10.87,2.89s-3.33-6.88-5.53-10.05 c-2.75-3.97-4.83-5.42-4.83-5.42s-4.1,0.59-8.99,4.55C10.26,84.69,7.94,89.25,8.71,90.41z" fill="#FFA726"/>
  <path d="M13.75,85.33c0.75,1.01,3.27-1.2,5.58-2.12s4.14-0.88,4.67-1.78c0.53-0.91,0.58-2.69-1.78-2.65 C18.51,78.87,12.65,83.84,13.75,85.33z" fill="#FAD91A"/>
  <path d="M46.67,37.82c-0.12,0.41-3.02,6.98-3.02,6.98l4.04,7.37l5.32-4.52l1.91-5.42L46.67,37.82z" fill="#5E636F"/>
  <path d="M50.62,41.3c0,0,3.61,2.09,4.3,1.69s2.64-5.87,3.49-6.05c1.63-0.35,4.09-1.09,4.65-4.07 c0.87-4.59-2.5-4.54-2.5-4.54l-9.89,2.62L50.62,41.3z" fill="#FC8F0B"/>
  <path d="M51.2,21.36c-1.1-0.47-13.49,0.23-15.29,0.64s-1.8,3.08-1.8,3.08l2.91,10.93c0,0,1.05,0.47,2.68,0.47 c1.16,0,2.04,0.35,2.73,0.7c0.7,0.35,8.2,4.13,8.2,4.13l5.47-9.83l6.4-1.98c0,0-0.58-1.28-2.85-1.92c-2.27-0.64-4.19-1.45-5.35-2.91 C53.12,23.22,52.31,21.82,51.2,21.36z" fill="#FCB90A"/>
  <path d="M48.47,23.68c0.25,0.96-1.28,2.33-3.2,3.49c-1.92,1.16-4.54,2.27-5.35,0.7 c-0.81-1.57-1.89-4.34-0.29-4.71C41.37,22.75,48.06,22.11,48.47,23.68z" fill="#FED519"/>
  <path d="M34.63,22.93c-1.05,0.12-2.97,2.82-1.74,7.56c1.22,4.71,3.53,6.06,5.12,5.58 c1.92-0.58,1.45-3.72,0.47-7.68C37.7,25.34,35.79,22.8,34.63,22.93z" fill="#DEDFE2"/>
  <path d="M73.13,28.98c0,0-13.72,0.06-15.06,0.12c-1.34,0.06-2.62,1.4-2.38,2.97c0.23,1.57,1.22,2.5,2.62,2.5 c1.4,0,14.25-0.12,14.25-0.12s1.51-0.7,1.51-3.14C74.06,29.27,73.13,28.98,73.13,28.98z" fill="#464C4F"/>
  <path d="M56.84,20.37l-0.12,6.34c0,0-0.29,1.93-1.74,1.98c-1.98,0.06-2.04-2.09-2.04-2.09 s0.06-9.82,0.06-10.35c0-1.45,1.16-4.07,2.91-6.11s3.26-3.26,4.65-2.62c1.4,0.64,1.63,3.84,1.57,6.8c-0.06,3.02-0.3,6.6-1.51,7.04 C59,21.94,56.84,20.37,56.84,20.37z" fill="#464C4F"/>
  <path d="M111.7,68.42c0,0,5.35-1.35,6.23-1.09c0.88,0.26,1.78,1.97,2.34,4.26c0.52,2.13,1.05,4.82,0.78,5.14 c-0.52,0.62-2.65,0.99-2.65,0.99s-6.49-5.55-6.59-5.87S111.7,68.42,111.7,68.42z" fill="#FF281D"/>
  <path d="M45.79,43.03c0,0,5.71,2.68,6.51,3.12c0.8,0.45,1.43,1.16,0.8,2.68c-0.62,1.52-4.55,13.74-5.17,17.84 s-0.27,8.65-0.27,8.65l-12.13,2.68l-2.14-4.91L45.79,43.03z" fill="#FC8F0B"/>
  <path d="M36.51,75.05l11.15,0.27c0,0,0.26,3.62,2.05,7.94c1.32,3.17,3.89,8.26,5.89,9.54 c0.83,0.54,3.66,1.34,6.6,1.34c2.59,0,4.63-0.74,6.07-1.63c1.64-1.02,2.4-2.03,2.4-2.03l11.33-1.61l-1.25,15.07l-27.65,0.09 l-14.9-14.9L36.51,75.05z" fill="#5F6364"/>
  <path d="M75.88,65.88c-1.7,0.28-5.66,3.59-5.66,3.59l0.74,3.35l31.33,7.26l20.44,3.24 c0,0-3.23-6.88-7.5-12.04c-3.52-4.26-6.02-5.85-6.02-5.85L75.88,65.88z" fill="#FE8D00"/>
  <path d="M43.74,41.99c0,0,2.94,1.41,3.67,1.83c1.1,0.64,0.25,3.43-0.69,5.02c-0.94,1.59-4.94,7.34-7.06,13.84 c-1.67,5.11-1.29,13.04-0.73,16.12c0.5,2.76,5.86,13.14,8.31,16.9c2.7,4.15,5.21,5.13,7.46,5.58c3.64,0.73,15.95,0.19,19.78-0.56 c3.83-0.75,5.22-3.08,2.24-5.78c-2.99-2.71-6.03-4.45-6.03-4.45s2.59-3.59,2.2-7.03c-0.28-2.52-1.94-10.64-1.94-10.64l16.58-0.18 l14.18-0.65l12.35,3c0,0,4.04,1.56,7.48,6.33c2.62,3.63,3.87,7.37,4.15,8.49c0.28,1.12,1.69,5.19-0.36,5.66 c-2.05,0.47-31.12,2.9-33.55,3.27c-2.43,0.37-5.59-0.09-6.77,3.01c-1.21,3.2-0.84,6.06-6.72,6.25c-5.88,0.19-24.42,2.21-29.31-1.36 c-4.07-2.96-9.5-8.63-15-18.05s-7.98-11.84-7.98-11.84l0.52-5.6l8.86-19.59l7.65-8.86L43.74,41.99z" fill="#FDB700"/>
  <path d="M41.64,41.08c-0.56-0.19-7.36,6.61-11.21,14.39c-5.13,10.36-4.45,21.3-4.45,21.3s2.67-1.71,3.7-3.76 c1.03-2.05,3.83-10.82,3.83-10.82s2.61-5.69,6.72-12.13c2.03-3.19,5.53-6.89,5.02-7.3C44.7,42.31,41.64,41.08,41.64,41.08z" fill="#FED519"/>
  <path d="M82.67,95.3c1.06-0.6-3.24-9.47,1.59-15.58c4.2-5.32,10.82-5.97,17.73-5.69 c5.71,0.23,13.62,1.77,13.62,1.77s-10.73-8.86-27.62-5.69c-12.86,2.42-12.97,12.59-11.57,16.98C77.92,91.77,82.02,95.67,82.67,95.3z " fill="#FED519"/>
  <path d="M67.37,67.69c0.09,1.21,0.21,2.17,2.43,2.15c2.21-0.02,11.1-0.37,21.64-0.65 c10.54-0.28,14.18-0.56,16.05-1.21c1.87-0.65,2.61-1.49,2.8-3.55c0.19-2.05,0-6.62-0.47-8.21c-0.47-1.59-1.49-2.05-3.92-2.15 c-2.25-0.09-9.05-0.09-10.08-0.09c-2.15,0-9.42,4.85-10.45,5.04s-4.57,0.37-8.68,0.37c-3.36,0-6.34-0.19-7.09-0.28 s-2.43,0.45-2.43,2.33C67.19,63.77,67.3,66.71,67.37,67.69z" fill="#464C4F"/>
  <path d="M34.15,62.19c-1.42-0.69-4.08,1.1-5.5,6.05c-1.33,4.63,0.41,7.02,1.65,6.79 c1.22-0.23,1.19-4.27,2.39-6.97C33.88,65.36,35.43,62.81,34.15,62.19z" fill="#FFFFFF"/>
</svg>

<svg viewBox="0 0 128 128" xmlns="http://www.w3.org/2000/svg">
  <defs/>
  <path d="M105.86,123.68 C117.45,122.34 123.88,111.6 121.69,101.07 C119.98,92.87 112.93,84.67 100.49,86.09 C87.3,87.59 83.18,100.22 84.87,108.7 C86.85,118.61 95.06,124.93 105.86,123.68 Z" fill="#4D453C"/>
  <path d="M101.33,95.28 C96.03,96.32 92.12,100.85 93.13,106.87 C94.19,113.2 99.75,115.83 105.27,114.82 C111.14,113.74 114.04,108.95 113.1,103.12 C112.26,97.86 106.85,94.2 101.33,95.28 Z" fill="#FFFFFF"/>
  <path d="M104.31,113.18 C109.34,112.61 112.14,108.04 111.19,103.55 C110.45,100.06 107.38,96.57 101.98,97.17 C96.25,97.81 94.46,103.19 95.2,106.8 C96.05,111.03 99.62,113.72 104.31,113.18 Z" fill="#B0B0B0"/>
  <path d="M24.74,124.19 C36.07,122.89 42.35,112.49 40.21,102.3 C38.54,94.36 31.64,86.43 19.49,87.8 C6.6,89.25 2.56,101.48 4.22,109.69 C6.16,119.29 14.19,125.4 24.74,124.19 Z" fill="#4D453C"/>
  <path d="M20.45,95.75 C14.92,96.83 10.85,101.55 11.9,107.82 C13.01,114.42 18.59,117.28 24.35,116.22 C30.46,115.1 33.51,110.07 32.53,104 C31.65,98.52 26.19,94.63 20.45,95.75 Z" fill="#FFFFFF"/>
  <path d="M23.35,113.76 C28.15,113.22 30.81,108.89 29.9,104.64 C29.19,101.33 26.27,98.03 21.12,98.6 C15.66,99.2 13.95,104.3 14.65,107.72 C15.48,111.71 18.88,114.26 23.35,113.76 Z" fill="#B0B0B0"/>
  <path d="M29.08,87.8 C29.08,87.8 20.27,102.02 19.2,104.29 C18.13,106.56 18.07,108.77 20.27,110.05 C22.6,111.41 24.76,109.69 26.04,107.44 C27.02,105.72 38.33,88.58 38.33,88.58 L29.08,87.8 Z" fill="#2F2F2F"/>
  <path d="M26.68,76.73 C26.68,76.73 25.62,76.73 24.41,76.91 C23.2,77.1 22.86,77.2 22.86,77.2 L24.54,87.62 L33.11,92.56 C33.11,92.56 37.22,95.06 40.62,98.3 C41.48,99.12 42.8,98.52 42.71,98.15 C42.62,97.78 33.77,78.03 33.77,78.03 L26.68,76.73 Z" fill="#FC8F02"/>
  <path d="M8.71,90.41 C9.36,91.39 14.34,89.46 22.37,89.78 C28.25,90.02 33.24,92.67 33.24,92.67 C33.24,92.67 29.91,85.79 27.71,82.62 C24.96,78.65 22.88,77.2 22.88,77.2 C22.88,77.2 18.78,77.79 13.89,81.75 C10.26,84.69 7.94,89.25 8.71,90.41 Z" fill="#FFA726"/>
  <path d="M13.75,85.33 C14.5,86.34 17.02,84.13 19.33,83.21 C21.64,82.29 23.47,82.33 24,81.43 C24.53,80.52 24.58,78.74 22.22,78.78 C18.51,78.87 12.65,83.84 13.75,85.33 Z" fill="#FAD91A"/>
  <path d="M46.67,37.82 C46.55,38.23 43.65,44.8 43.65,44.8 L47.69,52.17 L53.01,47.65 L54.92,42.23 L46.67,37.82 Z" fill="#5E636F"/>
  <path d="M50.62,41.3 C50.62,41.3 54.23,43.39 54.92,42.99 C55.61,42.59 57.56,37.12 58.41,36.94 C60.04,36.59 62.5,35.85 63.06,32.87 C63.93,28.28 60.56,28.33 60.56,28.33 L50.67,30.95 L50.62,41.3 Z" fill="#FC8F0B"/>
  <path d="M51.2,21.36 C50.1,20.89 37.71,21.59 35.91,22 C34.11,22.41 34.11,25.08 34.11,25.08 L37.02,36.01 C37.02,36.01 38.07,36.48 39.7,36.48 C40.86,36.48 41.74,36.83 42.43,37.18 C43.13,37.53 50.63,41.31 50.63,41.31 L56.1,31.48 L62.5,29.5 C62.5,29.5 61.92,28.22 59.65,27.58 C57.38,26.94 55.46,26.13 54.3,24.67 C53.12,23.22 52.31,21.82 51.2,21.36 Z" fill="#FCB90A"/>
  <path d="M48.47,23.68 C48.72,24.64 47.19,26.01 45.27,27.17 C43.35,28.33 40.73,29.44 39.92,27.87 C39.11,26.3 38.03,23.53 39.63,23.16 C41.37,22.75 48.06,22.11 48.47,23.68 Z" fill="#FED519"/>
  <path d="M34.63,22.93 C33.58,23.05 31.66,25.75 32.89,30.49 C34.11,35.2 36.42,36.55 38.01,36.07 C39.93,35.49 39.46,32.35 38.48,28.39 C37.7,25.34 35.79,22.8 34.63,22.93 Z" fill="#DEDFE2"/>
  <path d="M73.13,28.98 C73.13,28.98 59.41,29.04 58.07,29.1 C56.73,29.16 55.45,30.5 55.69,32.07 C55.92,33.64 56.91,34.57 58.31,34.57 C59.71,34.57 72.56,34.45 72.56,34.45 C72.56,34.45 74.07,33.75 74.07,31.31 C74.06,29.27 73.13,28.98 73.13,28.98 Z" fill="#464C4F"/>
  <path d="M56.84,20.37 L56.72,26.71 C56.72,26.71 56.43,28.64 54.98,28.69 C53,28.75 52.94,26.6 52.94,26.6 C52.94,26.6 53,16.78 53,16.25 C53,14.8 54.16,12.18 55.91,10.14 C57.66,8.1 59.17,6.88 60.56,7.52 C61.96,8.16 62.19,11.36 62.13,14.32 C62.07,17.34 61.83,20.92 60.62,21.36 C59,21.94 56.84,20.37 56.84,20.37 Z" fill="#464C4F"/>
  <path d="M111.7,68.42 C111.7,68.42 117.05,67.07 117.93,67.33 C118.81,67.59 119.71,69.3 120.27,71.59 C120.79,73.72 121.32,76.41 121.05,76.73 C120.53,77.35 118.4,77.72 118.4,77.72 C118.4,77.72 111.91,72.17 111.81,71.85 C111.71,71.53 111.7,68.42 111.7,68.42 Z" fill="#FF281D"/>
  <path d="M45.79,43.03 C45.79,43.03 51.5,45.71 52.3,46.15 C53.1,46.6 53.73,47.31 53.1,48.83 C52.48,50.35 48.55,62.57 47.93,66.67 C47.31,70.77 47.66,75.32 47.66,75.32 L35.53,78 L33.39,73.09 L45.79,43.03 Z" fill="#FC8F0B"/>
  <path d="M36.51,75.05 L47.66,75.32 C47.66,75.32 47.92,78.94 49.71,83.26 C51.03,86.43 53.6,91.52 55.6,92.8 C56.43,93.34 59.26,94.14 62.2,94.14 C64.79,94.14 66.83,93.4 68.27,92.51 C69.91,91.49 70.67,90.48 70.67,90.48 L82,88.87 L80.75,103.94 L53.1,104.03 L38.2,89.13 L36.51,75.05 Z" fill="#5F6364"/>
  <path d="M75.88,65.88 C74.18,66.16 70.22,69.47 70.22,69.47 L70.96,72.82 L102.29,80.08 L122.73,83.32 C122.73,83.32 119.5,76.44 115.23,71.28 C111.71,67.02 109.21,65.43 109.21,65.43 L75.88,65.88 Z" fill="#FE8D00"/>
  <path d="M43.74,41.99 C43.74,41.99 46.68,43.4 47.41,43.82 C48.51,44.46 47.66,47.25 46.72,48.84 C45.78,50.43 41.78,56.18 39.66,62.68 C37.99,67.79 38.37,75.72 38.93,78.8 C39.43,81.56 44.79,91.94 47.24,95.7 C49.94,99.85 52.45,100.83 54.7,101.28 C58.34,102.01 70.65,101.47 74.48,100.72 C78.31,99.97 79.7,97.64 76.72,94.94 C73.73,92.23 70.69,90.49 70.69,90.49 C70.69,90.49 73.28,86.9 72.89,83.46 C72.61,80.94 70.95,72.82 70.95,72.82 L87.53,72.64 L101.71,71.99 L114.06,74.99 C114.06,74.99 118.1,76.55 121.54,81.32 C124.16,84.95 125.41,88.69 125.69,89.81 C125.97,90.93 127.38,95 125.33,95.47 C123.28,95.94 94.21,98.37 91.78,98.74 C89.35,99.11 86.19,98.65 85.01,101.75 C83.8,104.95 84.17,107.81 78.29,108 C72.41,108.19 53.87,110.21 48.98,106.64 C44.91,103.68 39.48,98.01 33.98,88.59 C28.48,79.17 26,76.75 26,76.75 L26.52,71.15 L35.38,51.56 L43.03,42.7 L43.74,41.99 Z" fill="#FDB700"/>
  <path d="M41.64,41.08 C41.08,40.89 34.28,47.69 30.43,55.47 C25.3,65.83 25.98,76.77 25.98,76.77 C25.98,76.77 28.65,75.06 29.68,73.01 C30.71,70.96 33.51,62.19 33.51,62.19 C33.51,62.19 36.12,56.5 40.23,50.06 C42.26,46.87 45.76,43.17 45.25,42.76 C44.7,42.31 41.64,41.08 41.64,41.08 Z" fill="#FED519"/>
  <path d="M82.67,95.3 C83.73,94.7 79.43,85.83 84.26,79.72 C88.46,74.4 95.08,73.75 101.99,74.03 C107.7,74.26 115.61,75.8 115.61,75.8 C115.61,75.8 104.88,66.94 87.99,70.11 C75.13,72.53 75.02,82.7 76.42,87.09 C77.92,91.77 82.02,95.67 82.67,95.3 Z" fill="#FED519"/>
  <path d="M67.37,67.69 C67.46,68.9 67.58,69.86 69.8,69.84 C72.01,69.82 80.9,69.47 91.44,69.19 C101.98,68.91 105.62,68.63 107.49,67.98 C109.36,67.33 110.1,66.49 110.29,64.43 C110.48,62.38 110.29,57.81 109.82,56.22 C109.35,54.63 108.33,54.17 105.9,54.07 C103.65,53.98 96.85,53.98 95.82,53.98 C93.67,53.98 86.4,58.83 85.37,59.02 C84.34,59.21 80.8,59.39 76.69,59.39 C73.33,59.39 70.35,59.2 69.6,59.11 C68.85,59.02 67.17,59.56 67.17,61.44 C67.19,63.77 67.3,66.71 67.37,67.69 Z" fill="#464C4F"/>
  <path d="M34.15,62.19 C32.73,61.5 30.07,63.29 28.65,68.24 C27.32,72.87 29.06,75.26 30.3,75.03 C31.52,74.8 31.49,70.76 32.69,68.06 C33.88,65.36 35.43,62.81 34.15,62.19 Z" fill="#FFFFFF"/>
</svg>
